X: 1
T:Easy Club
M:4/4
L:1/8
C:Jim Sutherland
R:Reel
K:A
E2|"A"A2 Ac "E"BEGB|"A"ccAc eAce|"D"faag "A"aaea|"A"ceec "E"dcBc|"A"A2 A
c "E"BEGB"A"|ccAc eAce|"D"faga "A"efec|"G"dB=GB "A"A2:|
|:ce|"D" faad daga|"A"eaac caga|"D"faad daga|"A"ceeB "E"BdcB|"A"A2 cA "E
"BcdB|"A"cdec "D"defg|"A"agae faec|"G"dB=GB "A"A2:||
